packages/foundations/assets/icons/functional/images/arrows/arrow_up_14.svg

<svg width="14" height="14" viewBox="0 0 14 14" fill="none" xmlns="http://www.w3.org/2000/svg">
<g clip-path="url(#clip0_77_490)">
<path fill-rule="evenodd" clip-rule="evenodd" d="M7.481 2.31903C7.42191 2.24934 7.34816 2.19357 7.265 2.15571C7.18185 2.11785 7.09136 2.09884 7 2.10003C6.90572 2.10072 6.81256 2.12048 6.72612 2.15812C6.63967 2.19576 6.56174 2.25049 6.497 2.31903L2.997 5.79703C2.86943 5.93334 2.79893 6.11334 2.8 6.30003C2.8 6.69403 3.106 7.00003 3.5 7.00003C3.675 7.00003 3.85 6.93403 3.981 6.80303L6.3 4.48403V11.2C6.3 11.594 6.606 11.9 7 11.9C7.372 11.9 7.7 11.594 7.7 11.2V4.48403L9.997 6.80403C10.1356 6.92784 10.3142 6.99745 10.5 7.00003C10.872 7.00003 11.2 6.69403 11.2 6.30003C11.2014 6.13831 11.1455 5.98133 11.042 5.85703L7.481 2.31903Z" fill="#1A1C1F"/>
</g>
<defs>
<clipPath id="clip0_77_490">
<rect width="14" height="14" fill="white"/>
</clipPath>
</defs>
</svg>

<svg xmlns="http://www.w3.org/2000/svg" width="14" height="14" fill="none"><g clip-path="url(#a)"><path fill="#1A1C1F" fill-rule="evenodd" d="M7.481 2.319A.62.62 0 0 0 7 2.1a.7.7 0 0 0-.503.219l-3.5 3.478A.73.73 0 0 0 2.8 6.3c0 .394.306.7.7.7.175 0 .35-.066.481-.197L6.3 4.484V11.2c0 .394.306.7.7.7.372 0 .7-.306.7-.7V4.484l2.297 2.32A.77.77 0 0 0 10.5 7c.372 0 .7-.306.7-.7a.68.68 0 0 0-.158-.443z" clip-rule="evenodd"/></g><defs><clipPath id="a"><path fill="#fff" d="M0 0h14v14H0z"/></clipPath></defs></svg>
